X: 4
T: Boil The Breakfast Early
R: reel
M: 4/4
L: 1/8
K: Gmaj
|:G2 BG A~D3| GABG c2BA|GABG AGEF| GE E2 ~c2BA|
G2 BG A~D3| G~B3 c2 Bc|dBcA BGAF|1 G~E3 .cz BA:|2G~E3 .cz B^c
|:d~A3 dAFA|d~A3 dz fe|d~A3 dAFA|G~E3 ~c2 Bc|
d~A3 dAFA| d^cde dfe^c| dBcA BGAF|GE E2 ~c2 BA:|


Tune 3	Setting 12349

